X:1
T:Bereden Vag For Herran
T:Philip R. McDavid
T:Then Swenksa Psalmboken
T:Bereden Vag For Herran
T:Frame of Light Designs
T:Frame of Light Designs
T:Frame of Light Designs
T:Frame of Light Designs
T:Frame of Light Designs
C:Philip R. McDavid
Z:Then Swenksa Psalmboken
Z:Frame of Light Designs
%%score 1 2 { ( 3 5 ) | ( 4 6 ) }
L:1/8
M:6/4
K:G
V:1 treble transpose=-2 nm="B♭ Clarinet" snm="B♭ Cl."
V:2 bass nm="Euphonium" snm="Euph. Bu."
V:3 treble nm="Organ" snm="Org."
V:5 treble 
V:4 bass 
V:6 bass 
V:1
[K:A]|: E2 | F4 F2 E4 D2 | B,6 C4 C2 | D4 CD E4 E2 | (E6 E4) E2 | F4 F2 E4 D2 | B,6 C4 C2 | %7
 D4 CD E4 E2 | (E6 E4) E2 | (A2 G2) F2 E4 E2 | (E4 ^D2) E4 E2 | (^D2 E2) F2 (G3 F) E2 | %12
 (E2 C2 ^D2) E4 =D2 | E4 E2 F4 A2 | (A3 G F2 G4) G2 | A4 A2 F4 G2 | (E6 E4) :| z2 | %18
 z2 A,2 D2 C2 E2 ((D2 | (D2)) C2 B,2 C4) A,2 | D2 (A,2 F2) E4 (ED) | (D3 C B,2 C4) z2 | %22
 z2 (C2 D2) (E2 C2 A,2) | B,2 (E3 D) (C2 E2) (AG | FE D2 F2) (E4 D2) | (D3 C B,2 C4) z2 | %26
 z6 z4 E2 | (E4 ^D2 E6) | z2 (B,2 F2) (G3 F E2) | (E4 ^D2 E4) (B,A,) | G,4 C2 (C3 DEF) | %31
 (A3 G F2 G2 E2) ^E2 | F4 E2 (D3 C D2) | (D3 C B,2 C4) |] %34
V:2
|: B,2 | B,4 C2 B,4 G,2 | (G,4 F,2) G,4 G,2 | G,4 E,2 A,3 B, C2 | (C4 A,2) B,4 B,2 | %5
 B,4 C2 B,4 G,2 | (G,4 F,2) G,4 G,2 | G,4 E,2 A,3 B, C2 | (C4 A,2) B,4 G,2 | %9
 (B,2 A,2) G,2 A,4 G,2 | G,6 F,4 F,2 | A,2 B,2 ^C2 D4 D2 | (G,4 E,2) D4 A,2 | G,4 B,2 B,4 E,2 | %14
 (A,6 A,4) B,2 | E4 D2 (C2 B,2) C2 | C3 B, A,2 B,4 :| z2 | z2 G,2 C2 B,2 D2 (C2 | %19
 C2) B,2 A,2 B,4 G,2 | C,2 (G,2 E,2 D,4) (DC) | (C3 B, A,2 B,4) z2 | z2 (B,2 C2) (D2 B,2 G,2) | %23
 A,2 (D3 C) (B,2 D2) (G,F, | E,D, C,2 E,2) (D,4 C,2) | (C,3 B,, A,,2 B,,4) z2 | z6 z4 D,2 | %27
 (D,4 ^C,2 D,6) | z2 (A,,2 E,2) (F,3 E, D,2) | (D,4 ^C,2 D,4) (A,G,) | F,4 B,2 (B,3 CDE) | %31
 (G,3 F, E,2 F,2 D2) ^D2 | E4 D2 (C3 B, C2) | (C3 B, A,2 B,4) |] %34
V:3
|: [DG]2 | [EG]4 [EG]2 [DG]4 [CE]2 | [A,D]6 [B,D]4 D2 | [CE]4 G2 [DG]4 [DF]2 | [DG]6- [DG]4 [DG]2 | %5
w: 1~Pre-|pare the way, O|Zi- on, your|Christ is dra- wing|near! _ Let|
w: 2~Christ|brings God's rule, O|Zi- on; he|comes from heaven a-|bove. _ His|
 [EG]4 [EG]2 [DG]4 [CE]2 | [A,D]6 [B,D]4 D2 | [CE]4 G2 [DG]4 [DF]2 | [DG]6- [DG]4 [DB]2 | %9
w: ev- ery hill and|val- ley a|le- vel way ap-|pear. _ Greet|
w: rule is peace and|free- dom, and|jus- tice, truth, and|love. _ Lift|
 B4 [EB]2 [Dd]4 [DB]2 | A6 [DA]4 [DA]2 | A4 [EA]2 (([FA]3 [EG])) [DF]2 | %12
w: One who comes in|glo- ry, fore-|told in sa- * cred|
w: high your praise re-|soun- ding, for|grace and joy _ a-|
 ((E4 G2)) [DF]4"^Refrain" [=CE]2 | D4 [DG]2 (G3 A) Bc | d6- d4 [FB]2 | [GB]4 [GB]2 (A3 G) [FA]2 | %16
w: sto- * ry. Oh,|blest is Christ _ that _|came _ in|God's most ho- * ly|
w: boun- * ding. *||||
 [DG]6- [DG]4 :| [DG]2 | [EG]4 [EG]2 [DG]4 [CE]2 | [A,D]6 [B,D]4 D2 | [CE]4 G2 [DG]4 [DF]2 | %21
w: name. *|||||
w: |||||
 [DG]6- [DG]4 [DG]2 | [EG]4 [EG]2 [DG]4 [CE]2 | [A,D]6 [B,D]4 D2 | [CE]4 G2 [DG]4 [DF]2 | %25
w: ||||
w: ||||
 [DG]6- [DG]4 [DB]2 | B4 [EB]2 [Dd]4 [DB]2 | A6 [DA]4 [DA]2 | A4 [EA]2 (([FA]3 [EG])) [DF]2 | %29
w: ||||
w: ||||
 ((E4 G2)) [DF]4"^Refrain" [=CE]2 | D4 [DG]2 (G3 A) Bc | d6- d4 [FB]2 | [GB]4 [GB]2 (A3 G) [FA]2 | %33
w: ||||
w: ||||
 [DG]6- [DG]4 |] %34
w: |
w: |
V:4
|: [G,B,]2 | [E,B,]4 [C,C]2 [B,,G,]4 [C,G,]2 | (G,4 F,2) [G,,G,]4 [B,,G,]2 | %3
 [C,G,]4 [E,G,]2 A,3 B, [D,C]2 | (C4 A,2) B,4 [G,B,]2 | [E,B,]4 [C,C]2 [B,,G,]4 [C,G,]2 | %6
 (G,4 F,2) [G,,G,]4 [B,,G,]2 | [C,G,]4 [E,G,]2 A,3 B, [D,C]2 | (C4 A,2) [G,B,]4 [G,B,]2 | %9
 (B,2 A,2) [E,G,]2 [F,A,]4 G,2 | [E,G,]6 [D,F,]4 [D,F,]2 | A,4 [^C,A,]2 [D,F,]3 [E,G,] [F,A,]2 | %12
 (G,4 G,2) [D,A,]4 [A,,A,]2 | [B,,G,]4 [B,,B,]2 [E,B,]4 [E,G,]2 | [D,A,]6- [D,A,]4 [^D,B,]2 | %15
 [E,E]4 [B,,D]2 (([C,C]2 [E,B,]2)) [D,C]2 | C3 B, A,2 [D,B,]4 :| [G,B,]2 | %18
 [E,B,]4 [C,C]2 [B,,G,]4 [C,G,]2 | (G,4 F,2) [G,,G,]4 [B,,G,]2 | [C,G,]4 [E,G,]2 A,3 B, [D,C]2 | %21
 (C4 A,2) B,4 [G,B,]2 | [E,B,]4 [C,C]2 [B,,G,]4 [C,G,]2 | (G,4 F,2) [G,,G,]4 [B,,G,]2 | %24
 [C,G,]4 [E,G,]2 A,3 B, [D,C]2 | (C4 A,2) [G,B,]4 [G,B,]2 | (B,2 A,2) [E,G,]2 [F,A,]4 G,2 | %27
 [E,G,]6 [D,F,]4 [D,F,]2 | A,4 [^C,A,]2 [D,F,]3 [E,G,] [F,A,]2 | (G,4 G,2) [D,A,]4 [A,,A,]2 | %30
 [B,,G,]4 [B,,B,]2 [E,B,]4 [E,G,]2 | [D,A,]6- [D,A,]4 [^D,B,]2 | %32
 [E,E]4 [B,,D]2 (([C,C]2 [E,B,]2)) [D,C]2 | C3 B, A,2 [D,B,]4 |] %34
V:5
|: x2 | x12 | x10 D2 | x4 B,C x6 | x12 | x12 | x10 D2 | x4 B,C x6 | x12 | (G2 F2) x8 | %10
 (D4 ^C2) x6 | (^C2 D2) x8 | (D2 B,2 ^C2) x6 | D4 x2 E4 G2 | (G3 F E2 F4) x2 | x6 E4 x2 | x10 :| %17
 x2 | x12 | x10 D2 | x4 B,C x6 | x12 | x12 | x10 D2 | x4 B,C x6 | x12 | (G2 F2) x8 | (D4 ^C2) x6 | %28
 (^C2 D2) x8 | (D2 B,2 ^C2) x6 | D4 x2 E4 G2 | (G3 F E2 F4) x2 | x6 E4 x2 | x10 |] %34
V:6
|: x2 | x12 | D,6 x6 | x6 D,4 x2 | G,6- G,4 x2 | x12 | D,6 x6 | x6 D,4 x2 | G,6- x6 | E,4 x6 G,2 | %10
 x12 | (A,,2 B,,2) x8 | (E,4 E,2) x6 | x12 | x12 | x12 | ([G,,D,-]6 G,,4) :| x2 | x12 | D,6 x6 | %20
 x6 D,4 x2 | G,6- G,4 x2 | x12 | D,6 x6 | x6 D,4 x2 | G,6- x4 G,2 | E,4 x6 G,2 | x12 | %28
 (A,,2 B,,2) x8 | (E,4 E,2) x6 | x12 | x12 | x12 | ([G,,D,-]6 G,,4) |] %34

